X: 30043
T: Off To Puck Fair
R: jig
M: 6/8
K: Dmajor
d2 A B/c/dA|dcd A2 B|=cdc GEG|=cdc Afe|
d2 A B/c/dA|dcd ABG|FDF ECE|D3 D2:|
ABA FDF|ABA FDF|G=cG E=CE|G=cG E=CE|
ABA FDF|ABA A2 g|fed cfe|d3 d2:|
f2 d A2 F|ABF Ade|fg^g afd|e/f/gf ede|
f2 d A2 F|ABA A2 g|fed cfe|d3 d2:|
AF/E/D DFA|BGE Ee/f/g/a/|bge efd|cde A2 a|
d'af dAF|GAB Eag|fed cfe|d3 d2:|
ABA ABc|d2 A FDF|F2 G EDE|B2 A F2 G|
ABA ABc|dfd AFD|GBA GFE|D3 D2:|
f2 d AFA|f2 d Afa|g2 f e2 d|c/d/ec AFA|
f2 d AFA|f2 d AFA|Bgf edc|d3 d2:|

